assets/images/faq(white).svg

<?xml version="1.0"?>
<svg xmlns="http://www.w3.org/2000/svg" xmlns:xlink="http://www.w3.org/1999/xlink" xmlns:svgjs="http://svgjs.com/svgjs" version="1.1" width="512" height="512" x="0" y="0" viewBox="0 0 512 512" style="enable-background:new 0 0 512 512" xml:space="preserve" class=""><g><linearGradient xmlns="http://www.w3.org/2000/svg" id="SVGID_1_" gradientUnits="userSpaceOnUse" x1="256" x2="256" y1="451" y2="61"><stop stop-opacity="1" stop-color="#5558ff" offset="0"/><stop stop-opacity="1" stop-color="#ffffff" offset="0"/></linearGradient><g xmlns="http://www.w3.org/2000/svg"><g><g><path d="m255.045 160.733c-4.814-12.839-23.2-13.024-28.09 0l-45 120c-2.909 7.756 1.021 16.403 8.778 19.312 7.756 2.91 16.403-1.022 19.312-8.778l7.6-20.267h46.71l7.6 20.267c2.909 7.758 11.556 11.687 19.312 8.778 7.757-2.909 11.688-11.555 8.778-19.312zm-26.15 80.267 12.105-32.28 12.105 32.28zm-63.895-60c8.284 0 15-6.716 15-15s-6.716-15-15-15h-75c-8.284 0-15 6.716-15 15v120c0 8.284 6.716 15 15 15s15-6.716 15-15v-45h60c8.284 0 15-6.716 15-15s-6.716-15-15-15h-60v-30zm262.667 90.454c5.286-8.934 8.333-19.343 8.333-30.454v-30c0-33.084-26.916-60-60-60s-60 26.916-60 60v30c0 33.084 26.916 60 60 60 11.111 0 21.52-3.047 30.454-8.333l3.94 3.94c5.857 5.857 15.355 5.858 21.213 0s5.858-15.355 0-21.213zm-21.667-30.454c0 2.685-.36 5.285-1.024 7.763l-18.369-18.369c-5.857-5.858-15.355-5.858-21.213 0s-5.858 15.355 0 21.213l18.369 18.369c-2.478.664-5.079 1.024-7.763 1.024-16.542 0-30-13.458-30-30v-30c0-16.542 13.458-30 30-30s30 13.458 30 30zm31-180h-362c-41.355 0-75 33.645-75 75v180c0 41.355 33.645 75 75 75h141.729l25.854 51.708c2.542 5.082 7.735 8.292 13.417 8.292s10.875-3.21 13.417-8.292l25.854-51.708h141.729c41.355 0 75-33.645 75-75v-180c0-41.355-33.645-75-75-75zm45 255c0 24.813-20.187 45-45 45h-151c-5.682 0-10.875 3.21-13.417 8.292l-16.583 33.167-16.583-33.167c-2.542-5.082-7.735-8.292-13.417-8.292h-151c-24.813 0-45-20.187-45-45v-180c0-24.813 20.187-45 45-45h362c24.813 0 45 20.187 45 45z" fill="url(#SVGID_1_)" data-original="url(#SVGID_1_)"/></g></g></g></g></svg>

<svg width="512" height="512" viewBox="0 0 512 512" fill="none" xmlns="http://www.w3.org/2000/svg">
<g clip-path="url(#clip0_1_14)">
<path d="M255.045 160.733C250.231 147.894 231.845 147.709 226.955 160.733L181.955 280.733C179.046 288.489 182.976 297.136 190.733 300.045C198.489 302.955 207.136 299.023 210.045 291.267L217.645 271H264.355L271.955 291.267C274.864 299.025 283.511 302.954 291.267 300.045C299.024 297.136 302.955 288.49 300.045 280.733L255.045 160.733ZM228.895 241L241 208.72L253.105 241H228.895ZM165 181C173.284 181 180 174.284 180 166C180 157.716 173.284 151 165 151H90C81.716 151 75 157.716 75 166V286C75 294.284 81.716 301 90 301C98.284 301 105 294.284 105 286V241H165C173.284 241 180 234.284 180 226C180 217.716 173.284 211 165 211H105V181H165ZM427.667 271.454C432.953 262.52 436 252.111 436 241V211C436 177.916 409.084 151 376 151C342.916 151 316 177.916 316 211V241C316 274.084 342.916 301 376 301C387.111 301 397.52 297.953 406.454 292.667L410.394 296.607C416.251 302.464 425.749 302.465 431.607 296.607C437.465 290.749 437.465 281.252 431.607 275.394L427.667 271.454ZM406 241C406 243.685 405.64 246.285 404.976 248.763L386.607 230.394C380.75 224.536 371.252 224.536 365.394 230.394C359.536 236.252 359.536 245.749 365.394 251.607L383.763 269.976C381.285 270.64 378.684 271 376 271C359.458 271 346 257.542 346 241V211C346 194.458 359.458 181 376 181C392.542 181 406 194.458 406 211V241ZM437 61H75C33.645 61 0 94.645 0 136V316C0 357.355 33.645 391 75 391H216.729L242.583 442.708C245.125 447.79 250.318 451 256 451C261.682 451 266.875 447.79 269.417 442.708L295.271 391H437C478.355 391 512 357.355 512 316V136C512 94.645 478.355 61 437 61ZM482 316C482 340.813 461.813 361 437 361H286C280.318 361 275.125 364.21 272.583 369.292L256 402.459L239.417 369.292C236.875 364.21 231.682 361 226 361H75C50.187 361 30 340.813 30 316V136C30 111.187 50.187 91 75 91H437C461.813 91 482 111.187 482 136V316Z" fill="url(#paint0_linear_1_14)"/>
</g>
<defs>
<linearGradient id="paint0_linear_1_14" x1="256" y1="451" x2="256" y2="61" gradientUnits="userSpaceOnUse">
<stop stop-color="#F2F2F2"/>
</linearGradient>
<clipPath id="clip0_1_14">
<rect width="512" height="512" fill="white"/>
</clipPath>
</defs>
</svg>
